!!!OTL: Sha xiao
!!!ARE: Asia, China,ÿHebei, Jiaohe
!! IV, 93
!!!SCT: C1648
!!!YEM: Copyright 1995, estate of Helmut Schaffrath.
**kern
*ICvox
*Ivox
!! Mixed meters:  4/4; 2/4
*M2/4
*k[]
*C:
{8ee
4ee
16ee
16ee
8ee
8cc
8dd
16ee
16dd
=1
2.ee
4r}
=2
{16gg#
16ff#
8ee
8gg#
8ff#
16gg#
16ff#
32gg#
32ff#
[16ee
4ee]}
=3
{8ee
8ff#
16gg#
16ff#
4ee
[8b
8.b]
16cc#
=4
1ee}
=5
{8ee
8cc
8dd
16ee
16dd
=6
2ee
=7
8ee
16cc
16cc
8dd
16ee
16dd
=8
2ee}
=9
{8ee
4ee
8ff#
=10
8.ee
16dd
8b
8b
=11
2dd}
=12
{4b
8b
8ee
=13
8dd
8b
8.b
16a#
=14
2b}
=15
{8b
8g
8a
16b
16a
=16
2b}
=17
{8ee
8ee
8r
8ff#
=18
4ee
8b
8b
=19
4dd}
{8ee
8ee
=20
8dd#
8ee
8dd
8b
=21
2b}
=22
{8ee
8dd#
8ee
16ff#
16ee
=23
8dd
4b
8b
=24
2dd}
=25
{8b
8a
8b
16ee
16ee
=26
8dd
8b
8b
8a#
=27
2b}
==
!!!AGN: Wuge, Gaoqiao diao
!! ELFTONSKALA  b YU
!!!AMT: irregular
!!!AIN: vox
!!!EED: Helmut Schaffrath
!!!EEV: 1.0
*-
